!!!OTL: Songlang canjun
!!!ARE: Asia, China,ÿAnhui 
!! III, 557
!!!SCT: C2060
!!!YEM: Copyright 1995, estate of Helmut Schaffrath.
**kern
*ICvox
*Ivox
*M2/4
*k[b-]
*F:
{8f
8f
4c
=1
8f
8f
4c
=2
8.cc
16dd
8cc
8a
=3
8cc
8a
4g}
=4
{4g
4cc
=5
8cc
8d
4f
=6
8g
8a
8g
8f
=7
8f
8d
4c}
=8
{8f
8f
4c
=9
8f
8f
4c
=10
8.cc
16dd
8cc
8a
=11
8cc
8a
4g}
=12
{8.g
16a
4cc
=13
8cc
8d
4f
=14
8.g
16f
8g
8f
=15
8.g
16a
8g
8g
=16
8g
8f
8d
8d
=17
2c}
=18
{8.g
16a
4cc
=19
8cc
8d
4f
=20
8.f
16g
8cc
8a
=21
8g
8f
8d
8f
=22
4.c
8d
=23
2c}
==
!!!AGN: Xiaodiao
!!!AMT: simple duple
!!!AIN: vox
!!!EED: Helmut Schaffrath
!!!EEV: 1.0
*-
